X:815
T:Polska efter Karl Andersson,
T:(Sv. L. Sm. 20)
R:Polska
O:Loftahammar, Småland
S:efter Karl Andersson
B:Svenska Låtar Småland
N:Sv. L. Sm. 20
Z:Jonas Brunskog
M:3/4
L:1/16
K:Dm
|:A2d2 d2^cd e2de|e2f2 gfef gfef|d2de fefg g2a2|abag g2a2 a4:|
|:fcfa fcfa a2gf|eceg eceg g2fe|fcfa fcfa a2gf|eceg eceg g2fe|
a2a2 g2f2 e2d2|fe^ce d8:|
(:musicend:)

(:music:)
